svg/Pictogram/pictograms-aem-0080-machine_backover,_cutting-severing-blade.svg

<?xml version="1.0" encoding="ISO-8859-1" standalone="yes"?>
<svg height="304.014" width="304.015">
  <metadata>
    <rdf:RDF xmlns:cc="http://web.resource.org/cc/" xmlns:dc="http://purl.org/dc/elements/1.1/" xmlns:rdf="http://www.w3.org/1999/02/22-rdf-syntax-ns#">
      <cc:Work rdf:about="">
        <dc:title></dc:title>
        <dc:description></dc:description>
        <dc:subject>
          <rdf:Bag>
            <rdf:li></rdf:li>
          </rdf:Bag>
        </dc:subject>
        <dc:publisher>
          <cc:Agent rdf:about="http://www.unece.org/trans/danger/publi/ghs/pictograms.html">
            <dc:title>Source: UNECE GHS of Classification and Labeling of Chemicals, Source: AEM Pictorial Database, Source: AEM Pictorial Database, Source: AEM Pictorial Database, Source: AEM Pictorial Database</dc:title>
          </cc:Agent>
        </dc:publisher>
        <dc:creator>
          <cc:Agent>
            <dc:title></dc:title>
          </cc:Agent>
        </dc:creator>
        <dc:rights>
          <cc:Agent>
            <dc:title></dc:title>
          </cc:Agent>
        </dc:rights>
        <dc:date></dc:date>
        <dc:format>image/svg+xml</dc:format>
        <dc:type rdf:resource="http://purl.org/dc/dcmitype/StillImage"/>
        <cc:license rdf:resource="http://en.wikipedia.org/wiki/Public_domain"/>
        <dc:language>en</dc:language>
      </cc:Work>
    </rdf:RDF>
  </metadata>
  <defs><marker id="ArrowEnd" markerHeight="3" markerUnits="strokeWidth" markerWidth="4" orient="auto" refX="0" refY="5" viewBox="0 0 10 10"><path d="M 0 0 L 10 5 L 0 10 z"/></marker><marker id="ArrowStart" markerHeight="3" markerUnits="strokeWidth" markerWidth="4" orient="auto" refX="10" refY="5" viewBox="0 0 10 10"><path d="M 10 0 L 0 5 L 10 10 z"/></marker> </defs>
  <g id="g2958" transform="matrix(1.3532768,0,0,1.3532781,-53.207834,-52.192858)">
    <path d="M 214.269 108.635L 211.437 113.545C 211.437 113.545 228.69 123.506 238.374 129.096L 195.917 129.096L 195.917 134.764L 238.202 134.764C 228.487 140.374 211.437 150.217 211.437 150.217L 214.269 155.127L 254.534 131.881L 214.269 108.635" style="stroke:none; fill-rule:evenodd; fill:#000000"/>
    <path d="M 193.573 122.44C 193.573 128.19 188.804 132.862 183.054 132.862L 133.187 132.858L 105.882 180.901L 99.4214 177.491L 100.909 174.916L 94.0774 174.151L 74.9684 163.651C 75.6904 162.295 77.4644 160.975 78.9804 161.319L 88.7724 162.463C 88.7724 162.463 97.0074 164.811 102.437 153.694L 125.089 116.245C 125.983 114.381 127.831 112.971 130.394 111.995L 161.042 108.967L 161.034 79.0414L 154.87 86.4954C 153.745 87.3894 151.999 87.6004 150.394 87.3624L 119.03 82.8814C 115.3 82.3274 112.726 78.8504 113.284 75.1204C 113.843 71.3894 117.319 68.8194 121.054 69.3744L 149.503 72.2214L 161.929 57.4204C 161.929 57.4204 162.98 55.8894 166.425 55.8894L 184.972 55.8894C 184.972 55.8894 193.386 55.8894 193.386 65.7374L 193.573 122.44" style="stroke:none; fill-rule:evenodd; fill:#000000"/>
    <path d="M 136.733 139.956C 136.733 139.956 117.101 181.248 116.069 183.413C 113.8 183.413 88.7184 183.413 87.6634 183.413C 86.7414 182.838 68.4764 171.413 68.4764 171.413L 65.8124 175.682L 69.1984 177.795C 69.1984 177.795 69.5034 177.311 69.7494 176.916C 72.5264 178.655 86.5194 187.405 86.5194 187.405L 118.593 187.405C 118.593 187.405 138.769 144.971 139.8 142.807C 142.171 142.807 191.98 142.846 193.737 142.85C 194.694 143.995 201.112 151.643 202.562 153.37C 201.245 155.459 193.546 167.69 193.546 167.69L 196.921 169.819L 207.487 153.034L 195.597 138.862L 137.276 138.815L 136.733 139.952" style="stroke:none; fill-rule:evenodd; fill:#000000"/>
    <path d="M 58.6944 212.135L 64.3864 208.424L 92.9014 208.424L 92.9014 206.424L 95.9804 206.424L 95.9804 195.221L 61.4874 195.209C 59.2334 195.209 57.4094 196.916 57.3004 199.022L 57.3004 212.374L 52.3124 212.374L 52.3154 199.022C 52.3154 194.288 56.4254 190.448 61.4874 190.448L 135.339 190.448C 140.401 190.448 144.511 194.288 144.511 199.022L 144.515 212.374L 139.53 212.374L 139.53 199.022C 139.421 196.916 137.593 195.209 135.339 195.209L 100.847 195.221L 100.847 206.424L 103.929 206.424L 103.929 208.424L 132.44 208.424L 138.132 212.135L 58.6984 212.135" style="stroke:none; fill-rule:evenodd; fill:#000000"/>
    <path d="M 133.136 99.3854L 128.944 96.0734C 128.831 95.9524 128.694 95.8544 128.554 95.7644L 104.968 77.1204C 104.104 76.4364 102.847 76.5814 102.163 77.4484C 101.48 78.3114 101.628 79.5654 102.491 80.2484L 106.233 83.2094C 106.14 83.4594 106.089 83.7334 106.101 84.0144L 106.62 95.7094L 106.507 95.8584L 94.4524 86.7684L 93.2534 87.6634C 93.2534 87.6634 85.2844 93.6004 84.4914 94.1944C 83.4374 94.3074 52.1404 97.6124 52.1404 97.6124L 52.5624 101.581L 85.9994 98.0494C 85.9994 98.0494 92.6244 93.1124 94.4374 91.7564C 96.4564 93.2804 112.472 105.358 114.515 106.901C 113.522 109.432 100.913 141.647 100.019 143.936C 97.5544 143.936 71.8084 143.936 71.8084 143.936C 71.8084 143.936 62.0194 170.444 61.1404 172.819C 59.0654 172.819 52.3194 172.819 52.3194 172.819L 52.3194 176.811L 63.9254 176.811C 63.9254 176.811 73.7104 150.303 74.5894 147.928C 77.1014 147.928 102.745 147.928 102.745 147.928L 119.335 105.534L 114.519 101.901L 114.726 101.635L 126.937 99.5694L 130.663 102.514C 131.526 103.198 132.78 103.053 133.464 102.186C 134.147 101.323 134.003 100.069 133.136 99.3854zM 113.019 97.8774L 110.628 96.0024L 110.198 86.3424L 122.714 96.2374L 113.019 97.8774" style="stroke:none; fill-rule:evenodd; fill:#000000"/>
    <path d="M 171.21 213.377C 157.714 212.385 147.038 201.088 147.038 187.342C 147.038 172.948 158.749 161.237 173.144 161.237C 187.538 161.237 199.249 172.948 199.249 187.342C 199.249 195.44 195.546 202.69 189.737 207.483L 192.835 210.088C 199.206 204.565 203.241 196.416 203.241 187.342C 203.241 170.748 189.737 157.245 173.144 157.245C 156.546 157.245 143.046 170.748 143.046 187.342C 143.046 203.155 155.3 216.155 170.808 217.35L 171.21 213.377" style="stroke:none; fill-rule:evenodd; fill:#000000"/>
    <path d="M 193.565 221.248C 188.015 221.248 183.511 216.745 183.511 211.194C 183.511 205.639 188.015 201.139 193.565 201.139C 199.12 201.139 203.62 205.639 203.62 211.194C 203.62 216.745 199.12 221.248 193.565 221.248" style="stroke:none; fill-rule:evenodd; fill:#000000"/>
    <path d="M 129.175 220.045L 139.233 214.651L 141.019 216.897L 132.499 224.233L 129.175 220.045" style="stroke:none; fill-rule:evenodd; fill:#000000"/>
    <path d="M 128.87 237.643C 127.53 238.334 126.448 239.342 125.64 240.409C 124.46 241.956 122.925 243.502 120.636 242.502L 125.714 227.506L 146.136 231.522C 148.249 230.948 148.007 229.475 147.815 228.737C 147.538 227.682 143.784 226.913 140.647 225.862L 143.796 216.655L 149.608 216.655C 150.046 216.655 150.261 216.248 150.405 215.834C 151.827 211.674 154.968 207.745 159.593 208.1L 167.636 209.788L 176.358 211.596C 181.64 212.698 182.222 213.784 184.632 221.225L 190.835 235.772L 198.73 241.518C 200.23 243.077 200.288 245.545 198.815 247.17C 197.284 248.866 194.663 248.995 192.972 247.459L 183.862 240.174L 179.952 231.596C 175.343 232.834 166.663 232.663 162.444 231.663L 153.312 239.03C 152.358 239.784 150.276 240.459 149.097 240.17L 134.28 236.905C 132.175 236.502 130.659 236.78 128.87 237.643" style="stroke:none; fill-rule:evenodd; fill:#000000"/>
    <path d="M 127.019 207.885C 124.886 204.901 121.702 204.381 119.179 204.784C 117.44 205.057 115.55 204.764 114.683 202.678L 127.37 196.053L 133.073 204.229L 127.019 207.885" style="stroke:none; fill-rule:evenodd; fill:#000000"/>
    <path d="M 29.6204 265.393L 2.62042 265.393" style="stroke:#000000; stroke-width:0.5; fill:none"/>
    <path d="M 38.6204 274.393L 38.6204 301.393" style="stroke:#000000; stroke-width:0.5; fill:none"/>
    <path d="M 29.6204 38.6204L 2.62042 38.6204" style="stroke:#000000; stroke-width:0.5; fill:none"/>
    <path d="M 38.6204 29.6204L 38.6204 2.62042" style="stroke:#000000; stroke-width:0.5; fill:none"/>
    <path d="M 274.394 38.6204L 301.394 38.6204" style="stroke:#000000; stroke-width:0.5; fill:none"/>
    <path d="M 265.394 29.6204L 265.394 2.62042" style="stroke:#000000; stroke-width:0.5; fill:none"/>
    <path d="M 274.394 265.393L 301.394 265.393" style="stroke:#000000; stroke-width:0.5; fill:none"/>
    <path d="M 265.394 274.393L 265.394 301.393" style="stroke:#000000; stroke-width:0.5; fill:none"/>
  </g>
</svg>

<svg viewBox="0 0 304.01 304.01"><g transform="matrix(1.35328 0 0 1.35328-53.21-52.19)" fill-rule="evenodd"><path d="m214.27 108.64l-2.832 4.91c0 0 17.253 9.961 26.937 15.551h-42.46v5.668h42.28c-9.715 5.61-26.765 15.453-26.765 15.453l2.832 4.91 40.26-23.25-40.26-23.25"/><path d="m193.57 122.44c0 5.75-4.769 10.422-10.519 10.422l-49.867-.004-27.305 48.04-6.461-3.41 1.488-2.575-6.832-.765-19.11-10.5c.722-1.356 2.496-2.676 4.01-2.332l9.792 1.144c0 0 8.235 2.348 13.665-8.769l22.652-37.449c.894-1.864 2.742-3.274 5.305-4.25l30.648-3.03-.008-29.926-6.164 7.454c-1.125.894-2.871 1.105-4.476.867l-31.364-4.481c-3.73-.554-6.304-4.03-5.746-7.761.559-3.731 4.03-6.301 7.77-5.746l28.449 2.847 12.426-14.801c0 0 1.051-1.531 4.496-1.531h18.547c0 0 8.414 0 8.414 9.848l.187 56.703"/><path d="m136.73 139.96c0 0-19.632 41.29-20.664 43.46-2.269 0-27.351 0-28.406 0-.922-.575-19.19-12-19.19-12l-2.664 4.269 3.386 2.113c0 0 .305-.484.551-.879 2.777 1.739 16.77 10.489 16.77 10.489h32.07c0 0 20.18-42.43 21.21-44.598 2.371 0 52.18.039 53.937.043.957 1.145 7.375 8.793 8.825 10.52-1.317 2.089-9.02 14.32-9.02 14.32l3.375 2.129 10.566-16.785-11.89-14.172-58.32-.047-.543 1.137"/><path d="m58.694 212.13l5.692-3.711h28.515v-2h3.079v-11.203l-34.493-.012c-2.254 0-4.078 1.707-4.187 3.813v13.352h-4.988l.003-13.352c0-4.734 4.11-8.574 9.172-8.574h73.852c5.062 0 9.172 3.84 9.172 8.574l.004 13.352h-4.985v-13.352c-.109-2.106-1.937-3.813-4.191-3.813l-34.492.012v11.203h3.082v2h28.511l5.692 3.711h-79.43"/><path d="m133.14 99.39l-4.192-3.312c-.113-.121-.25-.219-.39-.309l-23.586-18.644c-.864-.684-2.121-.539-2.805.328-.683.863-.535 2.117.328 2.8l3.742 2.961c-.093.25-.144.524-.132.805l.519 11.695-.113.149-12.05-9.09-1.199.895c0 0-7.969 5.937-8.762 6.531-1.054.113-32.35 3.418-32.35 3.418l.422 3.969 33.437-3.532c0 0 6.625-4.937 8.438-6.293 2.02 1.524 18.03 13.602 20.08 15.14-.993 2.531-13.602 34.746-14.496 37.04-2.465 0-28.21 0-28.21 0 0 0-9.789 26.508-10.668 28.883-2.075 0-8.821 0-8.821 0v3.992h11.606c0 0 9.785-26.508 10.664-28.883 2.512 0 28.16 0 28.16 0l16.59-42.39-4.816-3.633.207-.266 12.211-2.066 3.726 2.945c.863.684 2.117.539 2.801-.328.683-.863.539-2.117-.328-2.801m-20.12-1.508l-2.391-1.875-.43-9.66 12.516 9.895-9.695 1.64"/><path d="m171.21 213.38c-13.496-.992-24.17-12.289-24.17-26.03 0-14.394 11.711-26.11 26.11-26.11 14.394 0 26.1 11.711 26.1 26.11 0 8.098-3.703 15.348-9.512 20.14l3.098 2.605c6.371-5.523 10.406-13.672 10.406-22.746 0-16.594-13.504-30.1-30.1-30.1-16.598 0-30.1 13.503-30.1 30.1 0 15.813 12.254 28.813 27.762 30.01l.402-3.973"/><path d="m193.56 221.25c-5.55 0-10.05-4.503-10.05-10.05 0-5.555 4.504-10.05 10.05-10.05 5.555 0 10.06 4.5 10.06 10.05 0 5.551-4.5 10.05-10.06 10.05"/><path d="m129.18 220.04l10.06-5.394 1.786 2.246-8.52 7.336-3.324-4.188"/><path d="m128.87 237.64c-1.34.691-2.422 1.699-3.23 2.766-1.18 1.547-2.715 3.093-5 2.093l5.078-14.996 20.422 4.02c2.113-.574 1.871-2.047 1.679-2.785-.277-1.055-4.03-1.824-7.168-2.875l3.149-9.207h5.812c.438 0 .653-.407.797-.821 1.422-4.16 4.563-8.089 9.188-7.734l8.04 1.688 8.722 1.808c5.282 1.102 5.864 2.188 8.274 9.629l6.203 14.547 7.895 5.746c1.5 1.559 1.558 4.03.085 5.652-1.531 1.696-4.152 1.825-5.843.289l-9.11-7.285-3.91-8.578c-4.609 1.238-13.289 1.067-17.508.067l-9.132 7.367c-.954.754-3.036 1.429-4.215 1.14l-14.817-3.265c-2.105-.403-3.621-.125-5.41.738"/><path d="m127.02 207.88c-2.133-2.984-5.317-3.504-7.84-3.101-1.739.273-3.629-.02-4.496-2.106l12.687-6.625 5.703 8.176-6.05 3.656"/></g></svg>
